X:1
T: H.M.S. Berwick
C:Muriel Johnstone
R:Reel
%Q: 232
K:G
M:4/4
L:1/8
|:d2|g3g d2 g2|fg af g2 ab|c'2 b2 a2 g2|fg fe d2 gf|
g2 G2 d2 D2|EF G2 D2 d2|eg e2 fa f2|g2 G2 G2:|
|:e^d|e2 E2 E2 d^c|d2 D2 D2 cB|c2 A2 d3c|BA GF G2 e^d|
e2 E2 E2 d^c|d2 D2 D2 B2|^c2 A2 a3g|1fg ef d2 ef:|2fg ef d2||
